frontend/public/svg/interface/dashboard-2.svg

<svg width="156" height="90" viewBox="0 0 156 90" fill="none" xmlns="http://www.w3.org/2000/svg">
<g clip-path="url(#clip0)">
<path d="M155.737 76.5554C155.334 79.0074 154.802 81.4374 154.144 83.8344C153.468 86.0358 152.046 86.4243 149.683 85.9575C148.279 85.6823 146.847 85.5722 145.417 85.6286C135.775 86.0067 126.14 86.614 116.493 86.8335C100.409 87.2 84.3252 87.2803 68.2415 87.5768C55.8211 87.8061 43.4027 88.1201 30.9862 88.5189C24.5593 88.7255 18.1452 89.2189 11.7183 89.54C10.1662 89.6073 8.61177 89.5938 7.06114 89.4999C2.73476 89.2642 1.05114 87.6966 1.00574 83.33C0.931215 80.3393 1.18174 77.3492 1.75288 74.4129C7.40744 47.7111 20.1576 25.2981 44.145 11.2711C68.4069 -2.91655 93.8878 -3.31368 119.233 9.14909C129.074 13.9884 136.687 21.5271 143.042 30.4183C150.624 41.0266 154.132 52.9346 154.89 65.7955C155.075 68.8886 155.374 71.9745 155.737 76.5554ZM85.1722 68.6982C93.059 62.6338 100.514 56.8827 108.001 51.1706C108.887 50.5056 109.852 49.9509 110.872 49.5184C112.883 48.6501 114.631 49.0158 115.704 50.3878C116.235 51.1108 116.487 52.0013 116.414 52.8952C116.341 53.7891 115.946 54.6263 115.304 55.253C114.09 56.5409 112.75 57.7038 111.305 58.7247C105.048 63.3141 98.7441 67.839 92.4721 72.4076C91.952 72.8311 91.4623 73.2901 91.007 73.7829C91.6705 76.0296 92.2548 78.009 92.9734 80.4416L146.601 78.165C147.047 74.3449 145.74 61.8535 144.534 58.3131C142.899 58.9282 141.265 59.5479 139.627 60.1598C137.242 61.0507 134.893 62.0697 132.457 62.7838C131.493 63.0905 130.449 63.0263 129.53 62.604C128.611 62.1816 127.883 61.4314 127.49 60.5009C126.724 58.7087 127.273 56.9443 129.111 55.591C129.834 55.0776 130.606 54.6386 131.417 54.2806C133.932 53.1235 136.472 52.0208 138.996 50.8832C140.27 50.3089 141.531 49.7047 142.928 49.0527C138.894 39.0167 133.493 30.2867 125.281 23.1534C123.409 25.7654 121.696 28.2123 119.917 30.6092C119.23 31.6112 118.421 32.5247 117.509 33.3288C115.766 34.7448 114.007 34.818 112.612 33.7743C111.216 32.7305 110.769 30.5621 111.829 28.6468C112.587 27.4267 113.477 26.2934 114.483 25.2675C116.299 23.2338 118.171 21.2532 120.261 18.9922C108.328 11.6109 95.9541 8.02914 82.0864 8.22273C82.5437 12.0267 83.0314 15.4095 83.3187 18.8095C83.4425 20.3347 83.3478 21.8698 83.0378 23.3684C82.6357 25.3063 81.2109 26.3612 79.2497 26.5581C78.2977 26.6466 77.3443 26.4029 76.5518 25.8685C75.76 25.3342 75.1776 24.5424 74.9046 23.6276C74.5232 22.3684 74.3384 21.0581 74.3572 19.7427C74.2865 16.2353 74.3332 12.7259 74.3332 8.85849C60.2151 10.8599 48.1673 15.9906 37.4178 25.2185C39.4782 27.0962 41.2441 28.5853 42.8655 30.2261C43.9818 31.2703 44.9278 32.4823 45.6691 33.8182C46.0253 34.5247 46.1187 35.3346 45.9325 36.1033C45.7462 36.8721 45.2925 37.5499 44.6522 38.0158C43.3642 39.0854 41.8388 39.4784 40.3394 38.5415C39.2254 37.8318 38.2032 36.988 37.2958 36.0287C35.5707 34.2255 33.9591 32.3135 32.1899 30.3218C25.1113 38.0777 19.3252 46.9176 15.0524 56.5041C16.354 57.0286 17.452 57.4916 18.5681 57.9163C20.6389 58.7056 22.7615 59.3749 24.7746 60.2884C25.8862 60.7607 26.8706 61.4881 27.6482 62.4111C29.1762 64.395 28.2034 66.8289 25.7175 67.0976C24.3044 67.1714 22.8944 66.9014 21.6084 66.3122C18.6647 65.082 15.817 63.616 12.7429 62.1572C10.0671 69.11 8.04819 75.9027 7.58708 83.3365C26.8272 82.3005 45.7171 81.2859 64.6083 80.2739C67.949 69.1197 77.4189 66.3174 85.1722 68.6982ZM84.4958 80.1794C83.8628 75.882 82.1078 74.5081 78.2698 75.2753C76.8301 75.5266 75.4649 76.0976 74.2761 76.9465C73.0874 77.7953 72.1048 78.8999 71.4018 80.1794H84.4958Z" fill="black"/>
</g>
<defs>
<clipPath id="clip0">
<rect width="155" height="90" fill="white" transform="translate(0.777344)"/>
</clipPath>
</defs>
</svg>

<svg xmlns="http://www.w3.org/2000/svg" width="156" height="90" fill="none" viewBox="0 0 156 90"><g clip-path="url(#a)"><path fill="#000" d="M155.737 76.555a71 71 0 0 1-1.593 7.28c-.676 2.2-2.098 2.59-4.461 2.123a18.4 18.4 0 0 0-4.266-.33c-9.642.379-19.277.986-28.924 1.206-16.084.366-32.168.446-48.251.743q-18.631.344-37.256.942c-6.427.206-12.84.7-19.268 1.021a45 45 0 0 1-4.657-.04c-4.326-.236-6.01-1.803-6.055-6.17a41.3 41.3 0 0 1 .747-8.917C7.407 47.71 20.158 25.298 44.145 11.27 68.407-2.917 93.888-3.314 119.233 9.15c9.841 4.84 17.454 12.378 23.809 21.27 7.582 10.608 11.09 22.516 11.848 35.377.185 3.093.484 6.179.847 10.76M85.172 68.7c7.887-6.064 15.342-11.815 22.829-17.527a13.7 13.7 0 0 1 2.871-1.653c2.011-.868 3.759-.502 4.832.87a3.724 3.724 0 0 1-.4 4.865 26.5 26.5 0 0 1-3.999 3.472c-6.257 4.59-12.56 9.114-18.833 13.683q-.781.635-1.465 1.375l1.966 6.659 53.628-2.277c.446-3.82-.861-16.312-2.067-19.852-1.635.615-3.269 1.235-4.907 1.847-2.385.89-4.734 1.91-7.17 2.624a4.06 4.06 0 0 1-2.927-.18 4.05 4.05 0 0 1-2.04-2.103c-.766-1.792-.217-3.557 1.621-4.91a13 13 0 0 1 2.306-1.31c2.515-1.157 5.055-2.26 7.579-3.398 1.274-.574 2.535-1.178 3.932-1.83-4.034-10.036-9.435-18.766-17.647-25.9-1.872 2.612-3.585 5.06-5.364 7.456a14.7 14.7 0 0 1-2.408 2.72c-1.743 1.416-3.502 1.489-4.897.445s-1.843-3.212-.783-5.127a19.6 19.6 0 0 1 2.654-3.38c1.816-2.033 3.688-4.014 5.778-6.275-11.933-7.381-24.307-10.963-38.175-10.77.458 3.805.945 7.188 1.233 10.588.123 1.525.029 3.06-.281 4.558-.402 1.938-1.827 2.993-3.788 3.19a4.13 4.13 0 0 1-4.345-2.93 12.8 12.8 0 0 1-.548-3.885c-.07-3.508-.024-7.017-.024-10.885-14.118 2.002-26.166 7.133-36.915 16.36 2.06 1.878 3.826 3.367 5.447 5.008a14.7 14.7 0 0 1 2.804 3.592 3.33 3.33 0 0 1-1.017 4.198c-1.288 1.07-2.813 1.462-4.313.526a16 16 0 0 1-3.043-2.513c-1.725-1.804-3.337-3.716-5.106-5.707a98 98 0 0 0-17.138 26.182c1.302.525 2.4.988 3.516 1.412 2.07.79 4.194 1.459 6.207 2.372a7.7 7.7 0 0 1 2.873 2.123c1.528 1.984.555 4.418-1.93 4.687a8.8 8.8 0 0 1-4.11-.786c-2.943-1.23-5.791-2.696-8.865-4.155-2.676 6.953-4.695 13.746-5.156 21.18 19.24-1.037 38.13-2.051 57.021-3.063 3.341-11.154 12.81-13.957 20.564-11.576m-.676 11.481c-.633-4.297-2.388-5.67-6.226-4.904a9.76 9.76 0 0 0-3.994 1.671 9.7 9.7 0 0 0-2.874 3.233z"/></g><defs><clipPath id="a"><path fill="#fff" d="M.777 0h155v90h-155z"/></clipPath></defs></svg>
